src/topics/icons/compose.svg

<svg height="148" preserveAspectRatio="xMidYMid" viewBox="0 0 256 148" width="256" xmlns="http://www.w3.org/2000/svg"><g><path d="m202.150846 29.5362716h-.127863l-49.610707-28.89695836-48.971394 28.51337036-50.2500206-29.1526836-53.1908614 30.9427607v56.2595649l102.673706 59.8397194 49.099257-28.385508 50.377883 29.152684 53.574449-30.942761v-56.2595651zm-.255726 57.666054-42.066811-24.4217657 42.450399-24.8053536 42.066811 24.677491zm-99.605002-49.6107072 42.450399 24.5496283-41.938948 24.4217657-42.3225367-24.677491zm92.316832-3.8358794-41.555361 24.1660403-42.322536-24.5496283 41.683223-24.29390302zm-99.0935523-.7671759-8.5667974 4.9866432-34.6507775 19.5629851-41.2996351-24.5496283 42.3225363-24.54962836zm-88.09736414 6.137407 41.55536044 25.061079v44.2404759l-41.55536044-25.3168041zm49.86643254 29.408409 41.5553605 24.677491v44.1126129l-41.5553605-24.677491zm98.8378269.5114506 42.322536 24.9332162v43.7290251l-42.322536-25.188941z"/><path d="m57.2824661 112.774855 41.5553605 24.421766v-43.9847509l-41.5553605-24.677491zm-49.86643254-29.7919967 41.55536044 25.3168037v-44.1126129l-41.55536044-25.061079zm148.70425944 29.6641337 42.322536 25.188942v-43.8568881l-42.322536-24.9332162z" opacity=".5"/></g></svg>

<?xml version="1.0" encoding="UTF-8" standalone="no"?>
<svg width="256px" height="148px" viewBox="0 0 256 148" version="1.1" xmlns="http://www.w3.org/2000/svg" xmlns:xlink="http://www.w3.org/1999/xlink" preserveAspectRatio="xMidYMid">
	<g fill="#000000">
		<path d="M202.150846,29.5362716 L202.022983,29.5362716 L152.412276,0.639313238 L103.440882,29.1526836 L53.1908614,0 L1.42108547e-14,30.9427607 L1.42108547e-14,87.2023256 L102.673706,147.042045 L151.772963,118.656537 L202.150846,147.809221 L255.725295,116.86646 L255.725295,60.6068949 L202.150846,29.5362716 L202.150846,29.5362716 Z M201.89512,87.2023256 L159.828309,62.7805599 L202.278708,37.9752063 L244.345519,62.6526973 L201.89512,87.2023256 L201.89512,87.2023256 Z M102.290118,37.5916184 L144.740517,62.1412467 L102.801569,86.5630124 L60.4790323,61.8855214 L102.290118,37.5916184 L102.290118,37.5916184 Z M194.60695,33.755739 L153.051589,57.9217793 L110.729053,33.372151 L152.412276,9.07824798 L194.60695,33.755739 L194.60695,33.755739 Z M95.5133977,32.9885631 L86.9466003,37.9752063 L52.2958228,57.5381914 L10.9961877,32.9885631 L53.318724,8.43893474 L95.5133977,32.9885631 L95.5133977,32.9885631 Z M7.41603356,39.1259701 L48.971394,64.1870491 L48.971394,108.427525 L7.41603356,83.1107209 L7.41603356,39.1259701 L7.41603356,39.1259701 Z M57.2824661,68.5343791 L98.8378266,93.2118701 L98.8378266,137.324483 L57.2824661,112.646992 L57.2824661,68.5343791 L57.2824661,68.5343791 Z M156.120293,69.0458297 L198.442829,93.9790459 L198.442829,137.708071 L156.120293,112.51913 L156.120293,69.0458297 L156.120293,69.0458297 Z"></path>
		<path d="M57.2824661,112.774855 L98.8378266,137.196621 L98.8378266,93.2118701 L57.2824661,68.5343791 L57.2824661,112.774855 Z M7.41603356,82.9828583 L48.971394,108.299662 L48.971394,64.1870491 L7.41603356,39.1259701 L7.41603356,82.9828583 Z M156.120293,112.646992 L198.442829,137.835934 L198.442829,93.9790459 L156.120293,69.0458297 L156.120293,112.646992 Z" opacity="0.5"></path>
	</g>
</svg>
